X:119
T:The Shan Van Vocht
B:Joyce, P. W.; "Old Irish Folk Music and Songs"
R:song air
N:Many settings of this air have been published.  I give one here which I
N:think has not yet seen the light.
L:1/8
O:Irish
M:C
Z:Allan Garvin
K:G
B>c|\
dggf d2 cA|G2 G2 G2 A>G|FGAB c>BAG|F2 D2 D2 G>F|
DGGF G2 A>F|GA {B}cd {e}=f2 d>f|g^fdc d2 cA|G2 G2 G2||
